img/logos/kraken.svg

<svg width="256" height="229" viewBox="0 0 256 229" xmlns="http://www.w3.org/2000/svg" preserveAspectRatio="xMinYMin meet"><defs><linearGradient x1="-33.923%" y1="50.023%" x2="157.868%" y2="50.023%" id="a"><stop offset="0%"/><stop stop-color="#2E3192" offset="28%"/><stop stop-color="#3E5AA8" offset="59%"/><stop stop-color="#0093D3" offset="82%"/><stop stop-color="#00AEEF" offset="100%"/></linearGradient><linearGradient x1="-46.425%" y1="49.968%" x2="198.911%" y2="49.968%" id="b"><stop offset="0%"/><stop stop-color="#2E3192" offset="23%"/><stop stop-color="#3E5AA8" offset="47%"/><stop stop-color="#0075BE" offset="78%"/><stop stop-color="#00AEEF" offset="100%"/></linearGradient><linearGradient x1="-60.263%" y1="104.922%" x2="192.566%" y2="-14.678%" id="c"><stop stop-color="#F58220" offset="0%"/><stop stop-color="#ED1C24" offset="47%"/><stop stop-color="#AE2538" offset="100%"/></linearGradient><linearGradient x1="-3.608%" y1="95.55%" x2="73.591%" y2="2.579%" id="d"><stop stop-color="#F58220" offset="0%"/><stop stop-color="#ED1C24" offset="38%"/><stop stop-color="#A71C20" offset="100%"/></linearGradient><linearGradient x1="-9.761%" y1="17.45%" x2="142.413%" y2="97.684%" id="e"><stop stop-color="#F58220" offset="0%"/><stop stop-color="#FFCB05" offset="50%"/><stop stop-color="#FFF200" offset="100%"/></linearGradient><linearGradient x1="28.061%" y1="-13.855%" x2="63.077%" y2="118.708%" id="f"><stop stop-color="#FFF200" offset="0%"/><stop stop-color="#F99D1C" offset="100%"/></linearGradient><linearGradient x1="33.093%" y1="77.266%" x2="86.963%" y2="36.744%" id="g"><stop stop-color="#F26522" offset="0%"/><stop stop-color="#C61D23" offset="100%"/></linearGradient><linearGradient x1="40.935%" y1="59.884%" x2="67.749%" y2="-81.382%" id="h"><stop stop-color="#2E3192" offset="0%"/><stop stop-color="#61A2D8" offset="100%"/></linearGradient><linearGradient x1="40.966%" y1="40.117%" x2="67.715%" y2="181.378%" id="i"><stop stop-color="#2E3192" offset="0%"/><stop stop-color="#61A2D8" offset="100%"/></linearGradient></defs><path d="M192.9 3.5l-64 110.8 64 110.8c3.6-2.1 6.6-5.1 8.8-9l51.8-89.8c4.4-7.7 4.4-16.5 0-24.2l-51.8-89.8c-2.2-3.7-5.2-6.7-8.8-8.8z" fill="url(#a)" transform="translate(-1)"/><path d="M128.9 114.4l41.4 71.6c.4-.5.8-1.1 1.1-1.7l35.6-61.6c3-5.3 3-11.4 0-16.6l-35.6-61.6c-.4-.6-.7-1.1-1.1-1.7l-41.4 71.6z" fill="url(#b)" transform="translate(-1)"/><path d="M128.9 114.4L96 57.4l95-54.8c.7.3 1.3.6 1.9 1l-64 110.8z" fill="url(#c)" transform="translate(-1)"/><path d="M56.1 216.3c-17.3-29.9-34.6-59.9-51.8-89.8-1.8-3.2-2.9-6.6-3.2-10l95 54.8-31.2 53.9c-3.5-2.1-6.6-5.1-8.8-8.9z" fill="url(#d)" transform="translate(-1)"/><path d="M96 171.4l95 54.8c.7-.3 1.3-.6 1.9-1l-64-110.8-32.9 57z" fill="url(#e)" transform="translate(-1)"/><path d="M56.2 12.4L4.3 102.3c-1.8 3.2-2.9 6.5-3.2 9.9l95-54.8L64.9 3.5c-3.5 2.1-6.5 5-8.7 8.9z" fill="url(#f)" transform="translate(-1)"/><path d="M96 57.3l32.9 57-32.9 57-95-54.8c-.1-1.4-.1-2.9 0-4.3l95-54.9z" fill="url(#g)" transform="translate(-1)"/><path d="M96 57.3l95-54.8c-3.1-1.4-6.6-2.2-10.2-2.2H77.1C72.7.3 68.5 1.4 65 3.5l31 53.8z" fill="url(#h)" transform="translate(-1)"/><path d="M64.9 225.2L96 171.4l95 54.8c-3.1 1.4-6.6 2.2-10.2 2.2H77.1c-4.5 0-8.6-1.1-12.2-3.2z" fill="url(#i)" transform="translate(-1)"/></svg>

<?xml version="1.0" encoding="UTF-8" standalone="no"?>
<svg width="256px" height="229px" viewBox="0 0 256 229" version="1.1" xmlns="http://www.w3.org/2000/svg" xmlns:xlink="http://www.w3.org/1999/xlink" preserveAspectRatio="xMinYMin meet">
    <defs>
        <linearGradient x1="-33.9227522%" y1="50.0225181%" x2="157.868335%" y2="50.0225181%" id="linearGradient-1">
            <stop stop-color="#000000" offset="0%"></stop>
            <stop stop-color="#2E3192" offset="28%"></stop>
            <stop stop-color="#3E5AA8" offset="59%"></stop>
            <stop stop-color="#0093D3" offset="82%"></stop>
            <stop stop-color="#00AEEF" offset="100%"></stop>
        </linearGradient>
        <linearGradient x1="-46.4245177%" y1="49.9675978%" x2="198.910641%" y2="49.9675978%" id="linearGradient-2">
            <stop stop-color="#000000" offset="0%"></stop>
            <stop stop-color="#2E3192" offset="23%"></stop>
            <stop stop-color="#3E5AA8" offset="47%"></stop>
            <stop stop-color="#0075BE" offset="78%"></stop>
            <stop stop-color="#00AEEF" offset="100%"></stop>
        </linearGradient>
        <linearGradient x1="-60.2632611%" y1="104.92211%" x2="192.565635%" y2="-14.6784239%" id="linearGradient-3">
            <stop stop-color="#F58220" offset="0%"></stop>
            <stop stop-color="#ED1C24" offset="47%"></stop>
            <stop stop-color="#AE2538" offset="100%"></stop>
        </linearGradient>
        <linearGradient x1="-3.60831579%" y1="95.5496482%" x2="73.5909474%" y2="2.57918126%" id="linearGradient-4">
            <stop stop-color="#F58220" offset="0%"></stop>
            <stop stop-color="#ED1C24" offset="38%"></stop>
            <stop stop-color="#A71C20" offset="100%"></stop>
        </linearGradient>
        <linearGradient x1="-9.76088751%" y1="17.4503069%" x2="142.413209%" y2="97.6840441%" id="linearGradient-5">
            <stop stop-color="#F58220" offset="0%"></stop>
            <stop stop-color="#FFCB05" offset="50%"></stop>
            <stop stop-color="#FFF200" offset="100%"></stop>
        </linearGradient>
        <linearGradient x1="28.0614737%" y1="-13.8545035%" x2="63.0765263%" y2="118.707644%" id="linearGradient-6">
            <stop stop-color="#FFF200" offset="0%"></stop>
            <stop stop-color="#F99D1C" offset="100%"></stop>
        </linearGradient>
        <linearGradient x1="33.0926777%" y1="77.2655263%" x2="86.9628794%" y2="36.7439474%" id="linearGradient-7">
            <stop stop-color="#F26522" offset="0%"></stop>
            <stop stop-color="#C61D23" offset="100%"></stop>
        </linearGradient>
        <linearGradient x1="40.9350773%" y1="59.8838596%" x2="67.7493779%" y2="-81.3819298%" id="linearGradient-8">
            <stop stop-color="#2E3192" offset="0%"></stop>
            <stop stop-color="#61A2D8" offset="100%"></stop>
        </linearGradient>
        <linearGradient x1="40.9655219%" y1="40.117193%" x2="67.7153346%" y2="181.377544%" id="linearGradient-9">
            <stop stop-color="#2E3192" offset="0%"></stop>
            <stop stop-color="#61A2D8" offset="100%"></stop>
        </linearGradient>
    </defs>
	<g transform="translate(-1.000000, 0.000000)">
		<path d="M192.9,3.5 L128.9,114.3 L192.9,225.1 C196.5,223 199.5,220 201.7,216.1 L253.5,126.3 C257.9,118.6 257.9,109.8 253.5,102.1 L201.7,12.3 C199.5,8.6 196.5,5.6 192.9,3.5 L192.9,3.5 L192.9,3.5 Z" fill="url(#linearGradient-1)"></path>
		<path d="M128.9,114.4 L170.3,186 C170.7,185.5 171.1,184.9 171.4,184.3 L207,122.7 C210,117.4 210,111.3 207,106.1 L171.4,44.5 C171,43.9 170.7,43.4 170.3,42.8 L128.9,114.4 L128.9,114.4 Z" fill="url(#linearGradient-2)"></path>
		<path d="M128.9,114.4 L96,57.4 L191,2.6 C191.7,2.9 192.3,3.2 192.9,3.6 L128.9,114.4 L128.9,114.4 Z" fill="url(#linearGradient-3)"></path>
		<path d="M56.1,216.3 C38.8,186.4 21.5,156.4 4.3,126.5 C2.5,123.3 1.4,119.9 1.1,116.5 L96.1,171.3 L64.9,225.2 C61.4,223.1 58.3,220.1 56.1,216.3 L56.1,216.3 L56.1,216.3 Z" fill="url(#linearGradient-4)"></path>
		<path d="M96,171.4 L191,226.2 C191.7,225.9 192.3,225.6 192.9,225.2 L128.9,114.4 L96,171.4 L96,171.4 Z" fill="url(#linearGradient-5)"></path>
		<path d="M56.2,12.4 L4.3,102.3 C2.5,105.5 1.4,108.8 1.1,112.2 L96.1,57.4 L64.9,3.5 C61.4,5.6 58.4,8.5 56.2,12.4 L56.2,12.4 L56.2,12.4 Z" fill="url(#linearGradient-6)"></path>
		<path d="M96,57.3 L128.9,114.3 L96,171.3 L1,116.5 C0.9,115.1 0.9,113.6 1,112.2 L96,57.3 L96,57.3 Z" fill="url(#linearGradient-7)"></path>
		<path d="M96,57.3 L191,2.5 C187.9,1.1 184.4,0.3 180.8,0.3 L77.1,0.3 C72.7,0.3 68.5,1.4 65,3.5 L96,57.3 L96,57.3 Z" fill="url(#linearGradient-8)"></path>
		<path d="M64.9,225.2 L96,171.4 L191,226.2 C187.9,227.6 184.4,228.4 180.8,228.4 L77.1,228.4 C72.6,228.4 68.5,227.3 64.9,225.2 L64.9,225.2 L64.9,225.2 Z" fill="url(#linearGradient-9)"></path>
	</g>
</svg>
